apps/common/main/resources/img/toolbar/2.5x/big/btn-highlighter-tool.svg

<svg width="28" height="28" viewBox="0 0 28 28" fill="none" xmlns="http://www.w3.org/2000/svg">
<path fill-rule="evenodd" clip-rule="evenodd" d="M12.785 4.04024C12.6415 3.9574 12.4581 4.00656 12.3752 4.15005L8.29671 11.2142C8.15864 11.4534 8.24058 11.7592 8.47973 11.8973L9.03617 12.2185L6.94075 17.439C6.84806 17.6699 6.93927 17.9338 7.15476 18.0582L7.64534 18.3415L5.42413 22.2528C5.23483 22.5861 5.47559 22.9997 5.85891 22.9997H11.2614C11.4124 22.9997 11.5552 22.9315 11.6502 22.8141L12.8415 21.3415L13.3319 21.6246C13.5474 21.749 13.8215 21.696 13.9752 21.5003L17.4485 17.0754L18.006 17.3973C18.2452 17.5353 18.5509 17.4534 18.689 17.2142L22.7675 10.1501C22.8504 10.0066 22.8012 9.82309 22.6577 9.74024L22.3113 9.54024C22.1678 9.4574 21.9844 9.50656 21.9015 9.65005L18.073 16.2812L17.8971 16.1797C17.8898 16.174 17.882 16.1687 17.8737 16.1639L9.61289 11.3945C9.60461 11.3898 9.59614 11.3856 9.58754 11.3822L9.41274 11.2812L13.2413 4.65005C13.3241 4.50656 13.2749 4.32309 13.1314 4.24024L12.785 4.04024ZM9.91099 12.7236L16.5737 16.5703L13.4563 20.5417L8.03031 17.409L9.91099 12.7236Z" fill="black"/>
</svg>

<svg width="28" height="28" fill="none" xmlns="http://www.w3.org/2000/svg"><path d="M12.785 4.04a.3.3 0 0 0-.41.11l-4.078 7.065a.5.5 0 0 0 .183.683l.556.32-2.095 5.221a.5.5 0 0 0 .214.62l.49.283-2.22 3.911a.5.5 0 0 0 .434.747h5.402a.5.5 0 0 0 .39-.186l1.19-1.472.491.283a.5.5 0 0 0 .643-.124l3.474-4.425.557.322a.5.5 0 0 0 .683-.183l4.079-7.065a.3.3 0 0 0-.11-.41l-.347-.2a.3.3 0 0 0-.41.11l-3.828 6.632-.176-.102a.204.204 0 0 0-.023-.016l-8.261-4.77a.204.204 0 0 0-.025-.011l-.175-.101L13.24 4.65a.3.3 0 0 0-.11-.41l-.346-.2Zm-2.874 8.684 6.663 3.847-3.118 3.971L8.03 17.41l1.881-4.685Z" fill="#000"/></svg>
